www/assets/icons/snowshoeing.svg

<svg xmlns="http://www.w3.org/2000/svg" width="24" height="24" viewBox="0 0 24 24" fill='currentColor'><path d="M12.5 3.25c0-1.1.9-2 2-2s2 .9 2 2-.9 2-2 2-2-.9-2-2M6.32 18.78l-1.14-1.47-1.18.94 2.38 3.04c.51.65 1.16 1.15 1.88 1.41.28.1.53.04.72-.11.3-.23.42-.7.12-1.07a.84.84 0 0 0-.31-.22 3 3 0 0 1-1.14-.83l-.08-.1L11 17.95l.89-3.22 2.11 2v4.52h-2v1.5h3.87c.82 0 1.61-.21 2.26-.61.26-.16.37-.39.37-.64 0-.38-.3-.75-.77-.75-.13 0-.26.04-.37.1-.4.23-.87.37-1.36.4v-6.02l-2.11-2 .6-3c1.3 1.5 3.31 2.52 5.51 2.52v-2c-1.9 0-3.51-1.02-4.31-2.42l-1-1.58c-.4-.6-1-1-1.7-1-.75 0-1.41.34-5.99 2.28v4.72h2V9.33l1.79-.7-1.59 8.12z"/></svg>

<svg width="24" height="24" viewBox="0 0 24 24" xmlns="http://www.w3.org/2000/svg" fill='currentColor'><path d="M12.5 3.25C12.5 2.15 13.4 1.25 14.5 1.25C15.6 1.25 16.5 2.15 16.5 3.25C16.5 4.35 15.6 5.25 14.5 5.25C13.4 5.25 12.5 4.35 12.5 3.25ZM6.32 18.78L5.18 17.31L4 18.25L6.38 21.29C6.89 21.94 7.54 22.44 8.26 22.7C8.54 22.8 8.79 22.74 8.98 22.59C9.28 22.36 9.4 21.89 9.1 21.52C9.02 21.42 8.9 21.35 8.79 21.3C8.36 21.12 7.97 20.85 7.65 20.47L7.57 20.37L11 17.95L11.89 14.73L14 16.73V21.25H12V22.75H15.87C16.69 22.75 17.48 22.54 18.13 22.14C18.39 21.98 18.5 21.75 18.5 21.5C18.5 21.12 18.2 20.75 17.73 20.75C17.6 20.75 17.47 20.79 17.36 20.85C16.96 21.08 16.49 21.22 16 21.25V15.23L13.89 13.23L14.49 10.23C15.79 11.73 17.8 12.75 20 12.75V10.75C18.1 10.75 16.49 9.73 15.69 8.33L14.69 6.75C14.29 6.15 13.69 5.75 12.99 5.75C12.24 5.75 11.58 6.09 7 8.03V12.75H9V9.33L10.79 8.63L9.2 16.75L6.32 18.78Z"/></svg>
